X: 194
T:Green Hills of Tyrol. JaW.193
M:6/8
Q:80
C:Last page of 4 stave book
S:James Winder Ms, Lancashire, 1835-41
R:Waltz
O:England
A:Wyresdale,Lancashire
N:There appear to be some pages missing after this in my photocopy.CGP
H:1/8
Z:vmp.Chris Partington, Aug 2004
K:F
C F G|A2A F A B |c2-c d A d|(cB) G E G d|cAF C F G|!
A2-A F A B |c2-c d A d|c B G C E G|F2-F zF2|!
f4e d |(dc) czd2|(cB) B zc2|BA A zF2|!
f4 e d|d c c zd2|c=B BzAG|c2zG e G|!
d2-d G =B G|c2-c G e G|d2-d G =B G|H"H"c2zCFG|!
A2A F A B |c2c d A d |(cB) G E G d|(cAF) C F G |!
A2-A F A B |c2-c d A d|(cB) G C E G |H"H"F2z E F G|!
A2-A E ^c E|"next page missing"zzzz|zzzz|zzzz|]
